SVG_Azure_Grouped/Data/Azure Cosmos DB Script Explorer.svg

<?xml version="1.0" encoding="UTF-8" standalone="no"?>
<!-- Generated by Microsoft Visio, SVG Export Azure Cosmos DB Script Explorer.svg Page-1 -->

<svg
   xmlns:dc="http://purl.org/dc/elements/1.1/"
   xmlns:cc="http://creativecommons.org/ns#"
   xmlns:rdf="http://www.w3.org/1999/02/22-rdf-syntax-ns#"
   xmlns:svg="http://www.w3.org/2000/svg"
   xmlns="http://www.w3.org/2000/svg"
   xmlns:sodipodi="http://sodipodi.sourceforge.net/DTD/sodipodi-0.dtd"
   xmlns:inkscape="http://www.inkscape.org/namespaces/inkscape"
   width="0.787386in"
   height="0.7872988in"
   viewBox="0 0 56.691742 56.685598"
   xml:space="preserve"
   class="st5"
   version="1.1"
   id="svg36"
   sodipodi:docname="Azure Cosmos DB Script Explorer.svg"
   style="font-size:12px;overflow:visible;color-interpolation-filters:sRGB;fill:none;fill-rule:evenodd;stroke-linecap:square;stroke-miterlimit:3"
   inkscape:version="0.92.5 (2060ec1f9f, 2020-04-08)"><metadata
   id="metadata42"><rdf:RDF><cc:Work
       rdf:about=""><dc:format>image/svg+xml</dc:format><dc:type
         rdf:resource="http://purl.org/dc/dcmitype/StillImage" /></cc:Work></rdf:RDF></metadata><defs
   id="defs40" /><sodipodi:namedview
   pagecolor="#ffffff"
   bordercolor="#666666"
   borderopacity="1"
   objecttolerance="10"
   gridtolerance="10"
   guidetolerance="10"
   inkscape:pageopacity="0"
   inkscape:pageshadow="2"
   inkscape:window-width="640"
   inkscape:window-height="480"
   id="namedview38"
   showgrid="false"
   inkscape:zoom="1.3289007"
   inkscape:cx="37.797647"
   inkscape:cy="37.791271"
   inkscape:window-x="0"
   inkscape:window-y="0"
   inkscape:window-maximized="0"
   inkscape:current-layer="svg36" />
	<style
   type="text/css"
   id="style2">
	<![CDATA[
		.st1 {fill:#2bace2;stroke:none;stroke-linecap:butt;stroke-width:38.25}
		.st2 {fill:#7a7a7a}
		.st3 {stroke:none;stroke-linecap:butt;stroke-width:38.25}
		.st4 {fill:#00aeef;stroke:none;stroke-linecap:butt;stroke-width:38.25}
		.st5 {fill:none;fill-rule:evenodd;font-size:12px;overflow:visible;stroke-linecap:square;stroke-miterlimit:3}
	]]>
	</style>

	<g
   id="g34"
   transform="translate(-38.250382,-38.2544)">
		<title
   id="title4">Page-1</title>
		<g
   id="group19724-1"
   transform="translate(38.25,-38.25)">
			<title
   id="title6">Azure Cosmos DB Script Explorer.19724</title>
			<g
   id="group19725-2">
				<title
   id="title8">Sheet.19725</title>
				<g
   id="shape19726-3"
   transform="translate(18.2327,-51.0307)">
					<title
   id="title10">Sheet.19726</title>
					<path
   d="m 6.88,132.38 a 7.08943,7.07777 -180 0 0 -1.63,-2.02 10.6342,10.6167 -180 0 0 -2.84,-1.2 L 0.39,128.73 C 0,129.12 0,129.55 0,130.36 c 0,2.44 0.82,2.83 0.82,2.83 h 6.45 a 1.24065,1.23861 -180 0 0 -0.39,-0.81 z"
   class="st1"
   id="path12"
   inkscape:connector-curvature="0"
   style="fill:#2bace2;stroke:none;stroke-width:38.25;stroke-linecap:butt" />
				</g>
				<g
   id="shape19727-5"
   transform="translate(21.8483,-14.6156)">
					<title
   id="title15">Sheet.19727</title>
					<path
   d="M 34.84,98.79 A 7.5148,7.50243 -180 0 0 28.36,91.12 H 0 c 0,0 5.28,1.2 6.1,5.66 a 17.7236,17.6944 0 0 1 0.39,2.01 27.5424,27.4971 0 0 1 -1.21,7.68 15.8803,15.8542 0 0 1 14.57,15.79 20.3467,20.3132 0 0 1 -0.81,4.85 h 9.32 v -1.63 c 0,-7.26 6.48,-18.19 6.48,-26.69 z m -6.87,29.94 h -9.75 a 16.7311,16.7035 0 0 1 -2.84,4.46 h 16.2 a 3.54472,3.53888 -180 0 0 2.45,-1.2 7.62114,7.6086 -180 0 0 0.81,-3.22 z"
   class="st1"
   id="path17"
   inkscape:connector-curvature="0"
   style="fill:#2bace2;stroke:none;stroke-width:38.25;stroke-linecap:butt" />
				</g>
				<g
   id="shape19728-7">
					<title
   id="title20">Sheet.19728</title>
					<path
   d="m 4.44,133.12 a 4.60813,4.60055 0 0 1 -3.22,-1.2 4.92716,4.91905 0 0 1 0,-6.48 L 11.85,114.83 A 14.6397,14.6156 0 0 1 10.61,104 15.2423,15.2172 0 0 1 25.5,92.28 a 11.2013,11.1829 0 0 1 3.54,0.39 13.5054,13.4831 0 0 1 9.33,6.87 14.9587,14.9341 0 0 1 1.63,11.71 15.2423,15.2172 0 0 1 -15,11.72 11.2013,11.1829 0 0 1 -3.54,-0.39 14.3915,14.3679 0 0 1 -3.55,-1.63 L 7.28,131.57 a 4.11187,4.1051 0 0 1 -2.84,1.62 z M 25.11,98.33 a 9.49984,9.48421 -180 0 0 -9.32,7.3 10.6342,10.6167 -180 0 0 1.2,7.67 l 2.45,2.45 3.54,1.2 H 25 a 9.49984,9.48421 -180 0 0 9.4,-7.29 10.6342,10.6167 -180 0 0 -1.21,-6.87 10.6342,10.6167 -180 0 0 -5.67,-4.46 z"
   class="st2"
   id="path22"
   inkscape:connector-curvature="0"
   style="fill:#7a7a7a" />
					<path
   d="m 4.44,133.12 a 4.60813,4.60055 0 0 1 -3.22,-1.2 4.92716,4.91905 0 0 1 0,-6.48 L 11.85,114.83 A 14.6397,14.6156 0 0 1 10.61,104 15.2423,15.2172 0 0 1 25.5,92.28 a 11.2013,11.1829 0 0 1 3.54,0.39 13.5054,13.4831 0 0 1 9.33,6.87 14.9587,14.9341 0 0 1 1.63,11.71 15.2423,15.2172 0 0 1 -15,11.72 11.2013,11.1829 0 0 1 -3.54,-0.39 14.3915,14.3679 0 0 1 -3.55,-1.63 L 7.28,131.57 a 4.11187,4.1051 0 0 1 -2.84,1.62 M 25.11,98.33 a 9.49984,9.48421 -180 0 0 -9.32,7.3 10.6342,10.6167 -180 0 0 1.2,7.67 l 2.45,2.45 3.54,1.2 H 25 a 9.49984,9.48421 -180 0 0 9.4,-7.29 10.6342,10.6167 -180 0 0 -1.21,-6.87 10.6342,10.6167 -180 0 0 -5.67,-4.46 h -2.41"
   class="st3"
   id="path24"
   inkscape:connector-curvature="0"
   style="stroke:none;stroke-width:38.25;stroke-linecap:butt" />
				</g>
				<g
   id="shape19729-10"
   transform="translate(19.7595,-19.8203)">
					<title
   id="title27">Sheet.19729</title>
					<path
   d="m 13.86,127.46 a 8.1174,8.10404 0 1 1 -8.12,-8.1 8.1174,8.10404 0 0 1 8.12,8.1 z"
   class="st4"
   id="path29"
   inkscape:connector-curvature="0"
   style="fill:#00aeef;stroke:none;stroke-width:38.25;stroke-linecap:butt" />
				</g>
			</g>
		</g>
	</g>
</svg>

<?xml version="1.0" encoding="UTF-8" standalone="no"?>
<!DOCTYPE svg PUBLIC "-//W3C//DTD SVG 1.1//EN" "http://www.w3.org/Graphics/SVG/1.1/DTD/svg11.dtd">
<!-- Generated by Microsoft Visio, SVG Export Azure Cosmos DB Script Explorer.svg Page-1 -->
<svg xmlns="http://www.w3.org/2000/svg" xmlns:xlink="http://www.w3.org/1999/xlink" xmlns:ev="http://www.w3.org/2001/xml-events"
		width="1.84996in" height="1.8499in" viewBox="0 0 133.197 133.193" xml:space="preserve" color-interpolation-filters="sRGB"
		class="st5">
	<style type="text/css">
	<![CDATA[
		.st1 {fill:#2bace2;stroke:none;stroke-linecap:butt;stroke-width:38.25}
		.st2 {fill:#7a7a7a}
		.st3 {stroke:none;stroke-linecap:butt;stroke-width:38.25}
		.st4 {fill:#00aeef;stroke:none;stroke-linecap:butt;stroke-width:38.25}
		.st5 {fill:none;fill-rule:evenodd;font-size:12px;overflow:visible;stroke-linecap:square;stroke-miterlimit:3}
	]]>
	</style>

	<g>
		<title>Page-1</title>
		<g id="group19275-1" transform="translate(38.25,-38.25)">
			<title>Azure Cosmos DB Script Explorer.19275</title>
			<g id="group19276-2">
				<title>Sheet.19276</title>
				<g id="shape19277-3" transform="translate(18.2327,-51.0307)">
					<title>Sheet.19277</title>
					<path d="M6.88 132.38 A7.08943 7.07777 -180 0 0 5.25 130.36 A10.6342 10.6167 -180 0 0 2.41 129.16 L0.39 128.73
								 C0 129.12 0 129.55 0 130.36 C0 132.8 0.82 133.19 0.82 133.19 L7.27 133.19 A1.24065 1.23861 -180
								 0 0 6.88 132.38 Z" class="st1"/>
				</g>
				<g id="shape19278-5" transform="translate(21.8483,-14.6156)">
					<title>Sheet.19278</title>
					<path d="M34.84 98.79 A7.5148 7.50243 -180 0 0 28.36 91.12 L0 91.12 C0 91.12 5.28 92.32 6.1 96.78 A17.7236 17.6944
								 0 0 1 6.49 98.79 A27.5424 27.4971 0 0 1 5.28 106.47 A15.8803 15.8542 0 0 1 19.85 122.26 A20.3467
								 20.3132 0 0 1 19.04 127.11 L28.36 127.11 L28.36 125.48 C28.36 118.22 34.84 107.29 34.84 98.79 ZM27.97
								 128.73 L18.22 128.73 A16.7311 16.7035 0 0 1 15.38 133.19 L31.58 133.19 A3.54472 3.53888 -180 0 0
								 34.03 131.99 A7.62114 7.6086 -180 0 0 34.84 128.77 L27.97 128.73 Z" class="st1"/>
				</g>
				<g id="shape19279-7">
					<title>Sheet.19279</title>
					<path d="M4.44 133.12 A4.60813 4.60055 0 0 1 1.22 131.92 A4.92716 4.91905 0 0 1 1.22 125.44 L11.85 114.83 A14.6397
								 14.6156 0 0 1 10.61 104 A15.2423 15.2172 0 0 1 25.5 92.28 A11.2013 11.1829 0 0 1 29.04 92.67 A13.5054
								 13.4831 0 0 1 38.37 99.54 A14.9587 14.9341 0 0 1 40 111.25 A15.2423 15.2172 0 0 1 25 122.97 A11.2013
								 11.1829 0 0 1 21.46 122.58 A14.3915 14.3679 0 0 1 17.91 120.95 L7.28 131.57 A4.11187 4.1051 0 0
								 1 4.44 133.19 L4.44 133.12 ZM25.11 98.33 A9.49984 9.48421 -180 0 0 15.79 105.63 A10.6342 10.6167
								 -180 0 0 16.99 113.3 L19.44 115.75 L22.98 116.95 L25 116.95 A9.49984 9.48421 -180 0 0 34.4 109.66
								 A10.6342 10.6167 -180 0 0 33.19 102.79 A10.6342 10.6167 -180 0 0 27.52 98.33 L25.11 98.33 Z"
							class="st2"/>
					<path d="M4.44 133.12 A4.60813 4.60055 0 0 1 1.22 131.92 A4.92716 4.91905 0 0 1 1.22 125.44 L11.85 114.83 A14.6397
								 14.6156 0 0 1 10.61 104 A15.2423 15.2172 0 0 1 25.5 92.28 A11.2013 11.1829 0 0 1 29.04 92.67 A13.5054
								 13.4831 0 0 1 38.37 99.54 A14.9587 14.9341 0 0 1 40 111.25 A15.2423 15.2172 0 0 1 25 122.97 A11.2013
								 11.1829 0 0 1 21.46 122.58 A14.3915 14.3679 0 0 1 17.91 120.95 L7.28 131.57 A4.11187 4.1051 0 0
								 1 4.44 133.19M25.11 98.33 A9.49984 9.48421 -180 0 0 15.79 105.63 A10.6342 10.6167 -180 0 0 16.99
								 113.3 L19.44 115.75 L22.98 116.95 L25 116.95 A9.49984 9.48421 -180 0 0 34.4 109.66 A10.6342 10.6167
								 -180 0 0 33.19 102.79 A10.6342 10.6167 -180 0 0 27.52 98.33 L25.11 98.33" class="st3"/>
				</g>
				<g id="shape19280-10" transform="translate(19.7595,-19.8203)">
					<title>Sheet.19280</title>
					<path d="M13.86 127.46 A8.1174 8.10404 0 1 1 5.74 119.36 A8.1174 8.10404 0 0 1 13.86 127.46 Z" class="st4"/>
				</g>
			</g>
		</g>
	</g>
</svg>
